icons/hourly.svg

<svg
  xmlns="http://www.w3.org/2000/svg"
  viewBox="0 0 500 500"
  width="500"
  height="500"
  fill="#ffffff"
>
  <path d="M148.5 267.2a107.1 107.1 0 0 0 106.9 106.9c59 0 107-48 107-106.9 0-56.5-44.1-102.8-99.7-106.6v-9.8h7.3v-20.5h-35v20.5h7.3v10.3c-52.8 6.6-93.8 51.6-93.8 106.1zm193.4 0a86.5 86.5 0 1 1-86.5-86.5 86.6 86.6 0 0 1 86.5 86.5z" />
  <path d="M268.2 60.8l-18.1 34.8 102-4.4L297.3 5l-19.1 36.7C217 30.1 150.3 52.3 101.3 101.3c-76 76-83.8 191.8-17.4 258.1l14.4-14.5C40 286.6 47.8 183.8 115.8 115.8c42.6-42.6 99.5-62.7 152.4-55z" />
  <path d="M416 140.6l-14.5 14.5c28.1 28 41.9 67.2 38.8 110.2s-23.1 85.8-56.2 118.9c-42.6 42.6-99.5 62.7-152.4 55l18.1-34.8-102 4.4 54.8 86.2 19.1-36.7a176.1 176.1 0 0 0 32.4 3.1c51.5 0 104-22.2 144.5-62.7 36.6-36.6 58.7-83.5 62.1-132s-12.3-93.8-44.7-126.1z" />
  <rect
    x="333.9"
    y="160.9"
    width="20.5"
    height="34.97"
    transform="rotate(-45 344.291 178.39)"
  />
  <polygon points="229.6 232.9 232.8 247.4 248.6 239.9 248.8 239.9 248.8 305.5 267.6 305.5 267.6 222.7 251.5 222.7 229.6 232.9" />
</svg>

<svg xmlns="http://www.w3.org/2000/svg" viewBox="0 0 500 500">
  <g id="hourly">
    <path id="timer-outline" d="M148.5,267.2A107.1,107.1,0,0,0,255.4,374.1c59,0,107-48,107-106.9,0-56.5-44.1-102.8-99.7-106.6v-9.8H270V130.3H235v20.5h7.3v10.3C189.5,167.7,148.5,212.7,148.5,267.2Zm193.4,0a86.5,86.5,0,1,1-86.5-86.5A86.6,86.6,0,0,1,341.9,267.2Z"/>
    <path id="top-arrow" d="M268.2,60.8,250.1,95.6l102-4.4L297.3,5,278.2,41.7C217,30.1,150.3,52.3,101.3,101.3c-76,76-83.8,191.8-17.4,258.1l14.4-14.5C40,286.6,47.8,183.8,115.8,115.8,158.4,73.2,215.3,53.1,268.2,60.8Z"/>
    <path id="bottom-arrow" d="M416,140.6l-14.5,14.5c28.1,28,41.9,67.2,38.8,110.2s-23.1,85.8-56.2,118.9c-42.6,42.6-99.5,62.7-152.4,55l18.1-34.8-102,4.4L202.6,495l19.1-36.7a176.1,176.1,0,0,0,32.4,3.1c51.5,0,104-22.2,144.5-62.7,36.6-36.6,58.7-83.5,62.1-132S448.4,172.9,416,140.6Z"/>
    <rect id="timer-button" x="333.9" y="160.9" width="20.5" height="34.97" transform="translate(-25.3 295.7) rotate(-45)"/>
    <polygon id="one" points="229.6 232.9 232.8 247.4 248.6 239.9 248.8 239.9 248.8 305.5 267.6 305.5 267.6 222.7 251.5 222.7 229.6 232.9"/>
  </g>
</svg>
